!!!COM: Charles Gounod
!!!CNT: Francais
!!!TXO: Francais
!!!OTL: "Le Juif-errant"
!!!LYR: Be/ranger
!!!OPR: 
!!!OPS: Op. 
!!!ONM: No.
!!!ENC: Emily Thomas
!!!YOR: CD Sheet Music French Art Songs, The Ultimate Collection
!!!YOR: CD Sheet Music, LLC 2003
!!!ODT: 1861/
!!NB: Vocal melody and text encoded.
**kern	**silbe
=0	=0
*clefG2	*
*k[b-e-a-d-]	*
*M4/4	*
*MM[Moderato.]	*
1r	.
=2	=2
1r	.
=3	=3
1r	.
=4	=4
1r	.
=5	=5
1r	.
=6	=6
1r	.
=7	=7
1r	.
=8	=8
1r	.
=9	=9
1r	.
=10	=10
1r	.
=11	=11
1r	.
=12	=12
1r	.
=13	=13
1r	.
=14	=14
1r	.
=15	=15
1r	.
=16	=16
1r	.
=17	=17
1r	.
=18	=18
1r	.
=19	=19
1r	.
=20	=20
1r	.
=21	=21
1r	.
=22	=22
1r	.
=23	=23
1r	.
=24	=24
1r	.
=25	=25
1r	.
=26	=26
1r	.
=27	=27
1r	.
=28	=28
2r	.
4r	.
{4f	{Chre/-
=29	=29
[4cc	-tien
8cc]}	|}
8r	.
{4dd-	{au
8cc	voy-
8b-	-a-
=30	=30
4cc	-geur
4cc	souf-
[4f	-frant
8f]}	|}
8r	.
=31	=31
{2ff	{Tends
4ff	un
8gg	ver-
8ff	-re
=32	=32
4ee-	d'eau
8a-	sur
8a-	ta
2dd-	por-
=33	=33
2cc}	-te!..}
4r	.
{4cc	{Je
=34	=34
4.dd-	suis,
8b-	je
4g-	suis
4f	le
=35	=35
4en	Juif-
4gn	-er-
[4cc	-rant
8cc]}	|}
8r	.
=36	=36
{8.f	{Qu'un
16g	|
8.a-	tour-
16b-	-bil-
4cc	-lon
16bn	tou-
16cc	|
16ddn	|
16een	|
=37	=37
4ff	-jours
4aa-	em-
2bn	-por-
=38	=38
4cc}	-te!}
4r	.
2r	.
=39	=39
{4.cc	{Sans
8cc	vieil-
4cc	-lir,
8cc	ac-
8cc	-ca-
=40	=40
4.ff	-ble/
8ff	de
[4ee-	jours,
8ee-]}	|}
8r	.
=41	=41
{4dd-	{La
8dd-	fin
8dd-	du
8d-	mon-
8cc	-de
8b-	est
8a-	|
=42	=42
4cc	mon
8b-	seul
8a-	|
4a-	re^-
8g}	-ve}
8r	.
=43	=43
{4.f	{Cha-
8f	-que
4.cc	soir
8cc	j'es-
=44	=44
8g	-pe\-
8f	|
8.g	-re
16a-	tou-
4g}	-jours,}
4r	.
=45	=45
{4.a-	{Cha-
8a-	-que
4.ee-	soir
8ee-	j'es-
=46	=46
8b-	-pe\-
8a-	|
8.b-	-re
16cc	tou-
4b-}	-jours}
4r	.
=47	=47
{8.cc	{Et
16dd-	tou-
4ee-	-jours
8ff	le
8ff	sol-
8.a-	-eil
16b-	se
=48	=48
1cc	le\-
=49	=49
2cc}	-ve!..}
4r	.
8.r	.
{16cc	{Tou-
=50	=50
[2cc	-jours!
4cc]	|
8.r	.
16cc	tou-
=51	=51
[2cc	-jours!
4cc]}	|}
4r	.
=52	=52
{4cc	{Tour-
8cc	-ne
8cc	la
4.dd-	terre
8dd-	ou
=53	=53
4.ddn	moi
8ddn	je
4ee-}	cours!}
8.r	.
{16een	{Tou-
=54	=54
[2een	-jours!
4een]}	|}
8.r	.
{16ff	{tou-
=55	=55
[2ff	-jours!
8ff]}	|}
8r	.
8.r	.
{16f	{tou-
=56	=56
[2cc	-jours!
4cc]}	|}
8.r	.
{16c	{tou-
=57	=57
[1c	-jours!
=58	=58
4c]}	|}
4r	.
2r	.
=59	=59
1r	.
=60	=60
1r	.
=61	=61
1r	.
=62	=62
{4cc	{Seul,
8r	.
8cc	au
4dd-	pied
8cc	d'ar-
8b-	|
=63	=63
4cc	-bus-
8cc	-tes
8cc	en
4f}	fleurs.}
4r	.
=64	=64
{4ff	{Sur
8ff	le
8ff	ga-
4ff	-zon,
8gg	au
8ff	|
=65	=65
4.ee-	bord
8a-	de
2dd-	l'on-
=66	=66
2cc}	-de,}
2r	.
=67	=67
{4dd-	{Si
8dd-	je
8b-	re-
4g-	-po-
4f	-se
=68	=68
4en	mes
4gn	dou-
[4cc	-leurs,
8cc]}	|}
8r	.
=69	=69
8r	.
{8cc	{J'en-
[4f	-tends
8f]	|
16g	le
16a-	|
16b-	tour-
16cc	|
16ddn	-bil-
16een	|
=70	=70
4ff	-lon
4aa-	qui
2bn	gron-
=71	=71
4cc}	-de!}
4r	.
2r	.
=72	=72
{4.cc	{Mais
8cc	qu'im-
4.cc	-porte
8cc	au
=73	=73
4ff	ciel
8.ff	ir-
16ff	-ri-
[4ee-	-te/
8ee-]}	|}
8r	.
=74	=74
{4.dd-	{Cet
8dd-	in-
4.cc	-stant
8cc	pas-
=75	=75
8ee-	-se/
8dd-	|
8cc	sous
8b-	l'om-
4a-	-bra-
8g}	-ge?}
8r	.
=76	=76
{4a-	{Faut-
4a-	-il
2ee-	moins
=77	=77
8b-	que
8a-	l'e/t-
8b-	-er-
8cc	-ni-
[4b-	-te/
8b-]}	|}
8r	.
=78	=78
{4cc	{Pour
8dd-	de/-
8ee-	-las-
8ff	-ser
8g	d'un
8a-	tel
8b-	vo-
=79	=79
1cc	-ya-
=80	=80
2cc}	-ge?}
4r	.
8.r	.
{16cc	{Tou-
=81	=81
[2cc	-jours√
4cc]}	|}
8.r	.
{16cc	{tou-
=82	=82
[2cc	-jours√
4cc]}	|}
4r	.
=83	=83
{4cc	{Tour-
8cc	-ne
8cc	la
4.dd-	terre
8dd-	ou\
=84	=84
4.ddn	moi
8ddn	je
4ee-}	cours!}
8.r	.
{16een	{Tou-
=85	=85
[2een	-jours!
4een]	|
8.r	.
16ff	tou-
=86	=86
[2ff	-jours!
8ff]}	|}
8r	.
8.r	.
{16f	{tou-
=87	=87
[2cc	-jours!
4cc]	|
8.r	.
16cc	tou-
=88	=88
[1c	-jours!
=89	=89
4c]}	|}
4r	.
2r	.
=90	=90
1r	.
=91	=91
1r	.
=92	=92
1r	.
=93	=93
{4.cc	{J'ou-
8cc	-trag-
4dd-	-eai
8cc	d'un
8b-	|
=94	=94
4.cc	rire
16cc	in-
16cc	-hum-
[4f	-main
8f]}	|}
8r	.
=95	=95
{8ff	{L'Hom-
8ff	-me
2ff	Dieu
8gg	res-
8ff	-pi-
=96	=96
4.ee-	-rant
8a-	a\
2dd-	pei-
=97	=97
2cc}	-ne!..}
2r	.
=98	=98
{[2dd-	{Mais√
8dd-]	|
8r	.
8.dd-	sous
16dd-	mes
=99	=99
[2ddn	pas
4ddn]}	|}
4r	.
=100	=100
{2.ee-	{fuit
8.ee-	le
16ee-	che-
=101	=101
[2een	-min√
4een]	|
8.r	.
16een	A-
=102	=102
2ff}	-dieu!}
8r	.
{8f	{le
8a-	tour-
8cc	-bil-
=103	=103
4ff	-lon
4aa-	m'en-
2bn	-trai-
=104	=104
4cc}	-ne!}
4r	.
2r	.
=105	=105
{4cc	{Vous
8cc	qui
8cc	man-
4cc	-quez
4cc	de
=106	=106
4.ff	cha-
8ff	-ri-
[4ee-	-te/,
8ee-]}	|}
16r	.
{16ee-	{Trem-
=107	=107
[4dd-	-blez,
8dd-]	|
16r	.
16dd-	trem-
4.cc	-blez
8cc	a
=108	=108
8bn	mon
8ddn	sup-
8.ff	-plice
16a-	e/-
4a-	-tran-
8g}	-ge!}
8r	.
=109	=109
{4.f	{Ce
8f	n'est
2cc	pas
=110	=110
4g	sa
12f	Di-
12g	-vi-
12a-	-ni-
4g}	-te/,}
4r	.
=111	=111
{4.a-	{Ce
8a-	n'est
2ee-	pas
=112	=112
4b-	sa
12a-	Di-
12b-	-vin-
12cc	-ni-
4b-}	-te/.}
4r	.
=113	=113
{8cc	{C'est
8cc	l'hu-
8dd-	-man-
8ee-	-i-
4ff	-te/
8.a-	que
16b-	Dieu
=114	=114
1cc	ven-
=115	=115
2cc}	-ge!!!}
4r	.
8.r	.
{16cc	{Tou-
=116	=116
[2cc	-jours
4cc]	|
8.r	.
16cc	tou-
=117	=117
[2cc	-jours
4cc]}	|}
4r	.
=118	=118
{4cc	{Tour-
8cc	-ne
8cc	la
4.dd-	terre
8dd-	ou\
=119	=119
4.ddn	moi
8ddn	je
4ee-}	cours!}
8.r	.
{16een	{Tou-
=120	=120
[2een	-jours!
4een]	|
8.r	.
16ff	tou-
=121	=121
[1ff	-jours!
=122	=122
2ff_	|
8ff]}	|}
8r	.
8.r	.
{16f	{tou-
=123	=123
[2cc	-jours!
4cc]}	|}
8.r	.
{16c	{tou-
=124	=124
[1c	-jours!
=125	=125
4c]}	|}
4r	.
2r	.
==	==
*-	*-
